X: 10091
T: TULLOCH GORUM.     a Strathspey.
R: strathspey
B: "Edinburgh Repository of Music" v.1 p.9 #1
F: http://digital.nls.uk/special-collections-of-printed-music/pageturner.cfm?id=87776133
Z: 2015 John Chambers <jc:trillian.mit.edu>
M: C
L: 1/8
K: G
d/>c/ !segno!|\
B>G d>G c>=F A2 | B>G d>G B>c dg |\
B>G d>G c>=F A2 |[1 B>G d>G c2 A :|\
[2 B>G dG c2 BA |] G>g d>e =f>F A2 |
G>g d>g B>g d>g |\
G>g d>e =f>F A2 | G>g d>c {c2}B2 A>B |\
G>g d>e =fF A2 | G>g d>e =f>ga>g |\
=f>ef>d cFA2 | g>dg>b g2 d>c !segno!|]

%%sep 2 1 500
%%sep 1 1 500

